client/src/assets/payment.svg

<svg width="24" height="24" viewBox="0 0 24 24" fill="none" xmlns="http://www.w3.org/2000/svg">
<path d="M18.1111 8.14286V5.57143C18.1111 4.88944 17.8536 4.23539 17.3951 3.75315C16.9367 3.27092 16.315 3 15.6667 3H3.44444C2.79614 3 2.17438 3.27092 1.71596 3.75315C1.25754 4.23539 1 4.88944 1 5.57143V13.2857C1 13.9677 1.25754 14.6218 1.71596 15.104C2.17438 15.5862 2.79614 15.8571 3.44444 15.8571H5.88889M8.33333 21H20.5556C21.2039 21 21.8256 20.7291 22.284 20.2468C22.7425 19.7646 23 19.1106 23 18.4286V10.7143C23 10.0323 22.7425 9.37825 22.284 8.89601C21.8256 8.41377 21.2039 8.14286 20.5556 8.14286H8.33333C7.68503 8.14286 7.06327 8.41377 6.60485 8.89601C6.14643 9.37825 5.88889 10.0323 5.88889 10.7143V18.4286C5.88889 19.1106 6.14643 19.7646 6.60485 20.2468C7.06327 20.7291 7.68503 21 8.33333 21ZM16.8889 14.5714C16.8889 15.2534 16.6313 15.9075 16.1729 16.3897C15.7145 16.8719 15.0928 17.1429 14.4444 17.1429C13.7961 17.1429 13.1744 16.8719 12.716 16.3897C12.2575 15.9075 12 15.2534 12 14.5714C12 13.8894 12.2575 13.2354 12.716 12.7532C13.1744 12.2709 13.7961 12 14.4444 12C15.0928 12 15.7145 12.2709 16.1729 12.7532C16.6313 13.2354 16.8889 13.8894 16.8889 14.5714Z" stroke="#1DC071" stroke-width="2" stroke-linecap="round" stroke-linejoin="round"/>
</svg>

<?xml version="1.0" encoding="utf-8"?>
<!-- Generator: Adobe Illustrator 25.4.0, SVG Export Plug-In . SVG Version: 6.00 Build 0)  -->
<svg version="1.1" id="Layer_1" xmlns="http://www.w3.org/2000/svg" xmlns:xlink="http://www.w3.org/1999/xlink" x="0px" y="0px"
	 viewBox="0 0 24 24" style="enable-background:new 0 0 24 24;" xml:space="preserve">
<style type="text/css">
	.st0{fill:none;stroke:#A2A2C8;stroke-width:2;stroke-linecap:round;stroke-linejoin:round;}
</style>
<path class="st0" d="M18.1,8.1V5.6c0-0.7-0.3-1.3-0.7-1.8C16.9,3.3,16.3,3,15.7,3H3.4C2.8,3,2.2,3.3,1.7,3.8C1.3,4.2,1,4.9,1,5.6
	v7.7c0,0.7,0.3,1.3,0.7,1.8s1.1,0.8,1.7,0.8h2.4 M8.3,21h12.2c0.6,0,1.3-0.3,1.7-0.8c0.5-0.5,0.7-1.1,0.7-1.8v-7.7
	c0-0.7-0.3-1.3-0.7-1.8c-0.5-0.5-1.1-0.8-1.7-0.8H8.3c-0.6,0-1.3,0.3-1.7,0.8C6.1,9.4,5.9,10,5.9,10.7v7.7c0,0.7,0.3,1.3,0.7,1.8
	C7.1,20.7,7.7,21,8.3,21z M16.9,14.6c0,0.7-0.3,1.3-0.7,1.8c-0.5,0.5-1.1,0.8-1.7,0.8c-0.6,0-1.3-0.3-1.7-0.8
	c-0.5-0.5-0.7-1.1-0.7-1.8s0.3-1.3,0.7-1.8c0.5-0.5,1.1-0.8,1.7-0.8c0.6,0,1.3,0.3,1.7,0.8C16.6,13.2,16.9,13.9,16.9,14.6z"/>
</svg>
